melody-of-light/img/icons/icomoon/print.svg

<svg width="22" height="22" viewBox="0 0 22 22" fill="none" xmlns="http://www.w3.org/2000/svg">
<path fill-rule="evenodd" clip-rule="evenodd" d="M2.66825 8.16825C3.17616 7.66034 3.86504 7.375 4.58333 7.375H17.4167C18.135 7.375 18.8238 7.66034 19.3317 8.16825C19.8397 8.67616 20.125 9.36504 20.125 10.0833V13.75C20.125 14.4683 19.8397 15.1572 19.3317 15.6651C18.8238 16.173 18.135 16.4583 17.4167 16.4583H15.5833C15.1001 16.4583 14.7083 16.0666 14.7083 15.5833C14.7083 15.1001 15.1001 14.7083 15.5833 14.7083H17.4167C17.6708 14.7083 17.9146 14.6074 18.0943 14.4276C18.274 14.2479 18.375 14.0042 18.375 13.75V10.0833C18.375 9.82917 18.274 9.58541 18.0943 9.40569C17.9146 9.22597 17.6708 9.125 17.4167 9.125H4.58333C4.32917 9.125 4.08541 9.22597 3.90569 9.40569C3.72597 9.58541 3.625 9.82917 3.625 10.0833V13.75C3.625 14.0042 3.72597 14.2479 3.90569 14.4276C4.08541 14.6074 4.32917 14.7083 4.58333 14.7083H6.41667C6.89992 14.7083 7.29167 15.1001 7.29167 15.5833C7.29167 16.0666 6.89992 16.4583 6.41667 16.4583H4.58333C3.86504 16.4583 3.17616 16.173 2.66825 15.6651C2.16034 15.1572 1.875 14.4683 1.875 13.75V10.0833C1.875 9.36504 2.16034 8.67616 2.66825 8.16825Z" fill="white"/>
<path fill-rule="evenodd" clip-rule="evenodd" d="M6.33427 2.66825C6.84218 2.16034 7.53105 1.875 8.24935 1.875H13.7493C14.4676 1.875 15.1565 2.16034 15.6644 2.66825C16.1723 3.17616 16.4577 3.86504 16.4577 4.58333V8.25C16.4577 8.73325 16.0659 9.125 15.5827 9.125C15.0994 9.125 14.7077 8.73325 14.7077 8.25V4.58333C14.7077 4.32917 14.6067 4.08541 14.427 3.90569C14.2473 3.72597 14.0035 3.625 13.7493 3.625H8.24935C7.99518 3.625 7.75143 3.72597 7.5717 3.90569C7.39198 4.08541 7.29102 4.32917 7.29102 4.58333V8.25C7.29102 8.73325 6.89926 9.125 6.41602 9.125C5.93277 9.125 5.54102 8.73325 5.54102 8.25V4.58333C5.54102 3.86504 5.82636 3.17616 6.33427 2.66825Z" fill="white"/>
<path fill-rule="evenodd" clip-rule="evenodd" d="M8.24935 12.7917C7.72008 12.7917 7.29102 13.2208 7.29102 13.7501V17.4167C7.29102 17.946 7.72008 18.3751 8.24935 18.3751H13.7493C14.2786 18.3751 14.7077 17.946 14.7077 17.4167V13.7501C14.7077 13.2208 14.2786 12.7917 13.7493 12.7917H8.24935ZM5.54102 13.7501C5.54102 12.2543 6.75358 11.0417 8.24935 11.0417H13.7493C15.2451 11.0417 16.4577 12.2543 16.4577 13.7501V17.4167C16.4577 18.9125 15.2451 20.1251 13.7493 20.1251H8.24935C6.75358 20.1251 5.54102 18.9125 5.54102 17.4167V13.7501Z" fill="white"/>
</svg>

<svg width="22" height="22" fill="none" xmlns="http://www.w3.org/2000/svg"><path fill-rule="evenodd" clip-rule="evenodd" d="M2.668 8.168a2.708 2.708 0 011.915-.793h12.834a2.708 2.708 0 012.708 2.708v3.667a2.708 2.708 0 01-2.708 2.708h-1.834a.875.875 0 110-1.75h1.834a.958.958 0 00.958-.958v-3.667a.958.958 0 00-.958-.958H4.583a.958.958 0 00-.958.958v3.667a.958.958 0 00.958.958h1.834a.875.875 0 010 1.75H4.583a2.708 2.708 0 01-2.708-2.708v-3.667c0-.718.285-1.407.793-1.915z" fill="#fff"/><path fill-rule="evenodd" clip-rule="evenodd" d="M6.334 2.668a2.708 2.708 0 011.915-.793h5.5a2.708 2.708 0 012.709 2.708V8.25a.875.875 0 01-1.75 0V4.583a.958.958 0 00-.959-.958h-5.5a.958.958 0 00-.958.958V8.25a.875.875 0 01-1.75 0V4.583c0-.718.285-1.407.793-1.915zM8.25 12.792a.958.958 0 00-.959.958v3.667c0 .529.43.958.958.958h5.5c.53 0 .959-.429.959-.958V13.75c0-.53-.43-.958-.959-.958h-5.5zm-2.709.958a2.708 2.708 0 012.708-2.708h5.5a2.708 2.708 0 012.709 2.708v3.667a2.708 2.708 0 01-2.709 2.708h-5.5a2.708 2.708 0 01-2.708-2.708V13.75z" fill="#fff"/></svg>
